assets/icons/support_icon_6.svg

<svg height="32" viewBox="0 0 1024 1024" width="32" xmlns="http://www.w3.org/2000/svg"><path d="m880 305h-256v-113c0-17.7-14.3-32-32-32h-408v-40c0-4.4-3.6-8-8-8h-56c-4.4 0-8 3.6-8 8v784c0 4.4 3.6 8 8 8h56c4.4 0 8-3.6 8-8v-264h248v113c0 17.7 14.3 32 32 32h416c17.7 0 32-14.3 32-32v-416c0-17.7-14.3-32-32-32zm-696 263v-336h368v336zm656 145h-336v-73h112c4.4 0 8-3.6 8-8v-255h216z" fill="#d3a468"/></svg>

<?xml version="1.0" standalone="no"?><!DOCTYPE svg PUBLIC "-//W3C//DTD SVG 1.1//EN" "http://www.w3.org/Graphics/SVG/1.1/DTD/svg11.dtd"><svg t="1566803829686" class="icon" viewBox="0 0 1024 1024" version="1.1" xmlns="http://www.w3.org/2000/svg" p-id="4217" xmlns:xlink="http://www.w3.org/1999/xlink" width="32" height="32"><defs><style type="text/css"></style></defs><path d="M880 305H624V192c0-17.7-14.3-32-32-32H184v-40c0-4.4-3.6-8-8-8h-56c-4.4 0-8 3.6-8 8v784c0 4.4 3.6 8 8 8h56c4.4 0 8-3.6 8-8V640h248v113c0 17.7 14.3 32 32 32h416c17.7 0 32-14.3 32-32V337c0-17.7-14.3-32-32-32zM184 568V232h368v336H184z m656 145H504v-73h112c4.4 0 8-3.6 8-8V377h216v336z" p-id="4218" fill="#D3A468"></path></svg>
